X: 071
M: 2/2
L: 1/8
K: G
d2d2 e2f2 | g2d2 g2f2 |\
e2e2 B2^c2 | d4 :|\
|: !f!d4 |\
d2cB c2d2 | !+!B4 G2A2 |
d2cB c2d2 | !+!B4 G2A2 |\

